X: 39501
T: Tattie Ball, The
R: reel
M: 4/4
K: Amixolydian
AcBc AF~F2|DEED EFAB|AcBc AF~F2|effe f~f3|
AcBc AF~F2|DEED EFAB|AcBc AF~F2|f4 a3e||
faef cB~B2|eAce fc2e|faef cB~B2|effe ~f4|
faef cB~B2|eAcA ~B2AB|c3f ecBc|AFFE F4||

